src/lib/packages/icons/src/assets/filled/building-tree.svg

<svg width="24" height="24" viewBox="0 0 24 24" fill="none" xmlns="http://www.w3.org/2000/svg">
<path d="M22 20.25H20.25V17.3721C21.261 17.0511 22 16.115 22 15V12C22 10.622 20.879 9.5 19.5 9.5C18.121 9.5 17 10.622 17 12V15C17 16.115 17.739 17.0521 18.75 17.3721V20.25H15V6C15 4 14 3 12 3H6C4 3 3 4 3 6V20.25H2C1.586 20.25 1.25 20.586 1.25 21C1.25 21.414 1.586 21.75 2 21.75H22C22.414 21.75 22.75 21.414 22.75 21C22.75 20.586 22.414 20.25 22 20.25ZM10.5 7.25H11.5C11.914 7.25 12.25 7.586 12.25 8C12.25 8.414 11.914 8.75 11.5 8.75H10.5C10.086 8.75 9.75 8.414 9.75 8C9.75 7.586 10.086 7.25 10.5 7.25ZM10.5 10.25H11.5C11.914 10.25 12.25 10.586 12.25 11C12.25 11.414 11.914 11.75 11.5 11.75H10.5C10.086 11.75 9.75 11.414 9.75 11C9.75 10.586 10.086 10.25 10.5 10.25ZM6.5 7.25H7.5C7.914 7.25 8.25 7.586 8.25 8C8.25 8.414 7.914 8.75 7.5 8.75H6.5C6.086 8.75 5.75 8.414 5.75 8C5.75 7.586 6.086 7.25 6.5 7.25ZM6.5 10.25H7.5C7.914 10.25 8.25 10.586 8.25 11C8.25 11.414 7.914 11.75 7.5 11.75H6.5C6.086 11.75 5.75 11.414 5.75 11C5.75 10.586 6.086 10.25 6.5 10.25ZM7 17C7 15.896 7.896 15 9 15C10.105 15 11 15.896 11 17V20.25H7V17Z" fill="currentColor"/>
</svg>

<svg xmlns="http://www.w3.org/2000/svg" width="24" height="24" fill="none"><path fill="currentColor" d="M22 20.25h-1.75v-2.878A2.495 2.495 0 0 0 22 15v-3c0-1.378-1.121-2.5-2.5-2.5A2.503 2.503 0 0 0 17 12v3c0 1.115.739 2.052 1.75 2.372v2.878H15V6c0-2-1-3-3-3H6C4 3 3 4 3 6v14.25H2a.75.75 0 0 0 0 1.5h20a.75.75 0 0 0 0-1.5Zm-11.5-13h1a.75.75 0 0 1 0 1.5h-1a.75.75 0 0 1 0-1.5Zm0 3h1a.75.75 0 0 1 0 1.5h-1a.75.75 0 0 1 0-1.5Zm-4-3h1a.75.75 0 0 1 0 1.5h-1a.75.75 0 0 1 0-1.5Zm0 3h1a.75.75 0 0 1 0 1.5h-1a.75.75 0 0 1 0-1.5ZM7 17a2 2 0 0 1 4 0v3.25H7V17Z"/></svg>
